X: 1
T: Lynn Stanhope Waltz
C: Beverly Woods 2018
R: waltz
S: Fiddle Hell Online 2021-02-24
Z: 2021 John Chambers <jc:trillian.mit.edu>
M: 3/4
L: 1/8
K: G
[|\
"G"G>D G>A B2 | "Em"B>G B>c d2 | "Am"e3 d B2 | "D"A6 |\
"G"G>D G>A B>G | "Em"B>G B>c dg | "Am"e2 d2 "D"B>A | "G"G6 ||
||\
"G"G>D G>A B>G | "Em"B>G B>c d2 | "Am"e2 a2 g>e | "D"d6 |\
"C"e2 g4 | "G"B2 d4 | "Am"e>d c>B "D"A>F | "G"G6 |]
[|\
"Em"g2 "Bm"d4 | "C"e2 "Em"B4 | "Am"c3 d Bc | "D"A6 |\
"Em"g2 "Bm"d4 | "C"e2 "G"B4 | "Am"c>B A>G "D"FD | "G"G6 ||
"Em"g2 "Bm"d4 | "C"e2 "Em"B4 | "Am"c3 d Bc | "D"A6 |\
"G"G>D G>A BG | "Em"B>G B>c dg | "Am"e2 d2 "D"BA | "G"G6 |]
